packages/core/assets/Icons/compare.svg

<svg viewBox="0 0 20 20" fill="none" xmlns="http://www.w3.org/2000/svg">
<path d="M8.33333 17.5H4.16667C3.70833 17.5 3.31597 17.3368 2.98958 17.0104C2.66319 16.684 2.5 16.2916 2.5 15.8333V4.16665C2.5 3.70831 2.66319 3.31595 2.98958 2.98956C3.31597 2.66317 3.70833 2.49998 4.16667 2.49998H8.33333V1.66665C8.33333 1.43054 8.41319 1.23262 8.57292 1.0729C8.73264 0.913174 8.93056 0.833313 9.16667 0.833313C9.40278 0.833313 9.60069 0.913174 9.76042 1.0729C9.92014 1.23262 10 1.43054 10 1.66665V18.3333C10 18.5694 9.92014 18.7673 9.76042 18.9271C9.60069 19.0868 9.40278 19.1666 9.16667 19.1666C8.93056 19.1666 8.73264 19.0868 8.57292 18.9271C8.41319 18.7673 8.33333 18.5694 8.33333 18.3333V17.5ZM4.16667 15H8.33333V9.99998L4.16667 15ZM11.6667 17.5V9.99998L15.8333 15V4.16665H11.6667V2.49998H15.8333C16.2917 2.49998 16.684 2.66317 17.0104 2.98956C17.3368 3.31595 17.5 3.70831 17.5 4.16665V15.8333C17.5 16.2916 17.3368 16.684 17.0104 17.0104C16.684 17.3368 16.2917 17.5 15.8333 17.5H11.6667Z" fill="currentColor"/>
</svg>

<svg xmlns="http://www.w3.org/2000/svg" width="20" height="20" fill="none" viewBox="0 0 20 20">
  <path fill="#201F1F" d="M8.333 17.5H4.167c-.459 0-.851-.163-1.177-.49a1.605 1.605 0 0 1-.49-1.177V4.167c0-.459.163-.851.49-1.177.326-.327.718-.49 1.177-.49h4.166v-.833c0-.236.08-.434.24-.594.16-.16.358-.24.594-.24s.434.08.593.24c.16.16.24.358.24.594v16.666c0 .236-.08.434-.24.594a.806.806 0 0 1-.593.24.806.806 0 0 1-.594-.24.807.807 0 0 1-.24-.594V17.5ZM4.167 15h4.166v-5l-4.166 5Zm7.5 2.5V10l4.166 5V4.167h-4.166V2.5h4.166c.459 0 .851.163 1.177.49.327.326.49.718.49 1.177v11.666c0 .459-.163.851-.49 1.177-.326.327-.718.49-1.177.49h-4.166Z"/>
</svg>
